img/menu/m-icons-cat7.svg

<svg width="24" height="24" viewBox="0 0 24 24" fill="none" xmlns="http://www.w3.org/2000/svg">
<path d="M5 7H6V8H5V7Z" fill="#034899"/>
<path d="M19 7H18V8H19V7Z" fill="#034899"/>
<path d="M6 12H5V13H6V12Z" fill="#034899"/>
<path d="M18 12H19V13H18V12Z" fill="#034899"/>
<path d="M5 17H6V18H5V17Z" fill="#034899"/>
<path d="M19 17H18V18H19V17Z" fill="#034899"/>
<path fill-rule="evenodd" clip-rule="evenodd" d="M21.7324 10C21.9026 9.70583 22 9.36429 22 9V6C22 4.89543 21.1046 4 20 4L4 4C2.89543 4 2 4.89543 2 6V9C2 9.36429 2.09739 9.70583 2.26757 10C2.09739 10.2942 2 10.6357 2 11L2 14C2 14.3643 2.09739 14.7058 2.26757 15C2.09739 15.2942 2 15.6357 2 16V19C2 20.1046 2.89543 21 4 21H20C21.1046 21 22 20.1046 22 19V16C22 15.6357 21.9026 15.2942 21.7324 15C21.9026 14.7058 22 14.3643 22 14V11C22 10.6357 21.9026 10.2942 21.7324 10ZM20 6H4V9H20V6ZM20 14V11H4L4 14H20ZM4 16V19H20V16H4Z" fill="#034899"/>
</svg>

<svg width="24" height="24" fill="none" xmlns="http://www.w3.org/2000/svg"><path d="M5 7h1v1H5V7zm14 0h-1v1h1V7zM6 12H5v1h1v-1zm12 0h1v1h-1v-1zM5 17h1v1H5v-1zm14 0h-1v1h1v-1z" fill="#034899"/><path fill-rule="evenodd" clip-rule="evenodd" d="M21.732 10A1.99 1.99 0 0 0 22 9V6a2 2 0 0 0-2-2H4a2 2 0 0 0-2 2v3c0 .364.097.706.268 1A1.99 1.99 0 0 0 2 11v3c0 .364.097.706.268 1A1.99 1.99 0 0 0 2 16v3a2 2 0 0 0 2 2h16a2 2 0 0 0 2-2v-3a1.99 1.99 0 0 0-.268-1A1.99 1.99 0 0 0 22 14v-3a1.99 1.99 0 0 0-.268-1zM20 6H4v3h16V6zm0 8v-3H4v3h16zM4 16v3h16v-3H4z" fill="#034899"/></svg>
